src/svg/alphabet/Wdieresis-7812.svg

<?xml version="1.0" standalone="no"?>
<!DOCTYPE svg PUBLIC "-//W3C//DTD SVG 1.1//EN" "http://www.w3.org/Graphics/SVG/1.1/DTD/svg11.dtd" >
<svg xmlns="http://www.w3.org/2000/svg" xmlns:xlink="http://www.w3.org/1999/xlink" version="1.1" viewBox="-10 0 806 1000">
   <path fill="currentColor"
d="M342 -56c15 0 27 12 27 27s-12 27 -27 27s-27 -12 -27 -27s12 -27 27 -27zM462 -56c15 0 27 12 27 27s-12 27 -27 27s-27 -12 -27 -27s12 -27 27 -27zM55 77l129 488c14 54 27 108 41 168c12 -60 25 -114 37 -168l117 -478h46l115 478c13 54 26 108 39 168
c14 -60 29 -114 43 -168l127 -488h35l-184 688h-43l-116 -478c-13 -54 -26 -108 -39 -168c-13 60 -27 114 -40 168l-115 478h-43l-184 -688h35z" />
</svg>

<svg xmlns="http://www.w3.org/2000/svg" viewBox="-10 0 806 1000"><path fill="currentColor" d="M342-56c15 0 27 12 27 27S357-2 342-2s-27-12-27-27 12-27 27-27zm120 0c15 0 27 12 27 27S477-2 462-2s-27-12-27-27 12-27 27-27zM55 77l129 488c14 54 27 108 41 168 12-60 25-114 37-168L379 87h46l115 478c13 54 26 108 39 168 14-60 29-114 43-168L749 77h35L600 765h-43L441 287c-13-54-26-108-39-168-13 60-27 114-40 168L247 765h-43L20 77h35z"/></svg>
